src/telerik-icons/solid/table-cell.svg

<?xml version="1.0" encoding="utf-8"?>
<svg xmlns="http://www.w3.org/2000/svg" width="512" height="512" viewBox="0 0 512 512">
  <path d="M32 32v416h416V32H32zm128 384H64v-96h96v96zm0-128H64v-96h96v96zm0-128H64V64h96v96zm128 256h-96v-96h96v96zm0-256h-96V64h96v96zm128 256h-96v-96h96v96zm0-128h-96v-96h96v96zm0-128h-96V64h96v96z"/>
</svg>

<?xml version="1.0" encoding="utf-8"?>
<!-- Generator: Adobe Illustrator 20.1.0, SVG Export Plug-In . SVG Version: 6.00 Build 0)  -->
<svg xmlns="http://www.w3.org/2000/svg" width="512" height="512" viewBox="0 0 512 512">
<path d="M32,32v416h416V32H32z M160,416H64v-96h96V416z M160,288H64v-96h96V288z M160,160H64V64h96V160z M288,416h-96v-96h96V416z
	 M288,160h-96V64h96V160z M416,416h-96v-96h96V416z M416,288h-96v-96h96V288z M416,160h-96V64h96V160z" />
</svg>
